optimized/20/solid/lock-open.svg

<svg xmlns="http://www.w3.org/2000/svg" viewBox="0 0 20 20">
  <path fill-rule="evenodd" d="M14.5 1C12.0147 1 10 3.01472 10 5.5V9H3C1.89543 9 1 9.89543 1 11V17C1 18.1046 1.89543 19 3 19H13C14.1046 19 15 18.1046 15 17V11C15 9.89543 14.1046 9 13 9H11.5V5.5C11.5 3.84315 12.8431 2.5 14.5 2.5C16.1569 2.5 17.5 3.84315 17.5 5.5V8.25C17.5 8.66421 17.8358 9 18.25 9C18.6642 9 19 8.66421 19 8.25V5.5C19 3.01472 16.9853 1 14.5 1Z" clip-rule="evenodd"/>
</svg>

<svg xmlns="http://www.w3.org/2000/svg" viewBox="0 0 20 20" fill="currentColor" aria-hidden="true">
  <path fill-rule="evenodd" d="M14.5 1A4.5 4.5 0 0010 5.5V9H3a2 2 0 00-2 2v6a2 2 0 002 2h10a2 2 0 002-2v-6a2 2 0 00-2-2h-1.5V5.5a3 3 0 116 0v2.75a.75.75 0 001.5 0V5.5A4.5 4.5 0 0014.5 1z" clip-rule="evenodd"/>
</svg>
